packages/kaspersky-hexa-ui-icons/src/iconsSVGs/48/Scan.svg

<svg xmlns="http://www.w3.org/2000/svg" width="48" height="48" fill="none" viewBox="0 0 48 48"><path fill="currentColor" fill-rule="evenodd" d="M0 0v38h16v8h-4v2h24v-2h-4v-8h7.12l-2-2H2v-5h21.42A13.58 13.58 0 0 1 20 29H2V2h44v25.13l2 2V0zm18 38h12v8H18zm20.11-11.31-1.52-1.51c3.5769-4.3296 3.1222-10.7053-1.0328-14.4836s-10.5451-3.6266-14.5162.3446c-3.9712 3.9711-4.1228 10.3612-.3446 14.5162 3.7783 4.155 10.154 4.6097 14.4836 1.0328l1.51 1.52-1.6 1.61L43.36 38 48 33.36l-8.27-8.27zM28.5 27c-4.6944 0-8.5-3.8056-8.5-8.5s3.8056-8.5 8.5-8.5 8.5 3.8056 8.5 8.5c-.0055 4.6921-3.8079 8.4945-8.5 8.5m14.86 8.17-5.45-5.45 1.81-1.81 5.45 5.45z" clip-rule="evenodd"/></svg>

<svg width="48" height="48" viewBox="0 0 48 48" fill="none" xmlns="http://www.w3.org/2000/svg">
<path fill-rule="evenodd" clip-rule="evenodd" d="M0 0V38H16V46H12V48H36V46H32V38H39.12L37.12 36H2V31H23.42C22.1884 30.5041 21.0361 29.8303 20 29H2V2H46V27.13L48 29.13V0H0ZM18 38H30V46H18V38ZM38.11 26.69L36.59 25.18C40.1669 20.8504 39.7122 14.4747 35.5572 10.6964C31.4022 6.91818 25.0121 7.06984 21.041 11.041C17.0698 15.0121 16.9182 21.4022 20.6964 25.5572C24.4747 29.7122 30.8504 30.1669 35.18 26.59L36.69 28.11L35.09 29.72L43.36 38L48 33.36L39.73 25.09L38.11 26.69ZM28.5 27C23.8056 27 20 23.1944 20 18.5C20 13.8056 23.8056 10 28.5 10C33.1944 10 37 13.8056 37 18.5C36.9945 23.1921 33.1921 26.9945 28.5 27ZM43.36 35.17L37.91 29.72L39.72 27.91L45.17 33.36L43.36 35.17Z"  fill="currentColor"/>
</svg>
